X: 22394
T: Lad O'Beirne's Favourite
R: reel
M: 4/4
K: Dmajor
c|dF ~F2 AFEF|dFBF A2 Bc|dF ~F2 AFEF|DBBA ~B3 c|
dF ~F2 AFEF|dFBF A2 Bc|(d/c/B {c}BA) ({c}B)AFE|DBBA ~B3||c|
d2 fd edfe|defe faaf|d2 fd edfd|BdcA ~B3 c|
d2 fd edfe|defe fa ~a2|faaf gfed|BdcA ~B3||

